X:121
T:Dandelion. THO5.121
M:C|
L:1/8
B:Thompson's Complete Collection of 200 Favourite Dances Vol.5
F:https://www.libraryofdance.org/manuals/1780c-Thompson-Compleat-5.pdf
Z:vmp. Peter Dunk 2024
Q:1/4=140
C:"1783"
K:D
d3B AFDF|EGFA AGFE|FAdf fedc|edce d2-d2:|
|:f3g a2a2|e3f g2g2|f3g a2 b/a/g/f/|e2e2 e4|
F3G A2A2|EGFA AGFE|FAdf gfed|cdec d2-d2:|
W:
W:Right hands across ./.
W:Left hands back again ./:
W:Lead down the middle, up again and cast off :/.
W:Allemand with the righthand, then with the left :/:

